X:1
T:Mahlon, SM
T:Mahlon, SM
T:J. Parsons, 1889
T:Public Domain Courtesy of the Cyber Hymnal™
C:J. Parsons, 1889
Z:Public Domain
Z:Courtesy of the Cyber Hymnal™
%%score ( 1 2 ) ( 3 4 )
L:1/8
Q:1/4=117
M:3/4
K:Bb
V:1 treble 
V:2 treble 
V:3 bass 
V:4 bass 
V:1
 [DF]2 | ([FB]2 [EA]2) [DB]2 | ([EG]2 [Gc]2) [FA]2 | [FB]4 [Fd]2 | (c2 A2) [Fc]2 | (B2 A2) [=EG]2 | %6
 F4 [DF]2 | (F2 B2) [DF]2 | [EG]4 [EG]2 | (G2 c2) [_EG]2 | [FA]4 F2 | (B2 c2) [Fd]2 | %12
 (ec [Fd]2) [Ec]2 | [DB]4 |] %14
V:2
 x2 | x6 | x6 | x6 | F4 x2 | F4 x2 | F4 x2 | D4 x2 | x6 | =E4 x2 | x4 F2 | F4 x2 | G2 x4 | x4 |] %14
V:3
 [B,,B,]2 | ([D,B,]2 [C,D]2) [B,,D]2 | E4 [F,C]2 | [B,,D]4 [B,,B,]2 | (A,2 C2) [A,,C]2 | %5
 ([B,,D]2 [C,C]2) [C,B,]2 | [F,A,]4 [B,,B,]2 | [B,,B,]4 [B,,B,]2 | [E,B,]4 [E,B,]2 | %9
 [C,C]4 [C,C]2 | [F,C]4 [E,A,]2 | ([D,B,]2 [C,A,]2) [B,,B,]2 | B,4 [F,A,]2 | [B,,F,B,]4 |] %14
V:4
 x2 | x6 | (E,2 C,2) x2 | x6 | F,4 x2 | x6 | x6 | x6 | x6 | x6 | x6 | x6 | (E,2 F,2) x2 | x4 |] %14

